img/basket.svg

<svg width="16" height="16" viewBox="0 0 16 16" fill="none" xmlns="http://www.w3.org/2000/svg">
  <path fill-rule="evenodd" clip-rule="evenodd"
    d="M5.66091 3.87546L5.89351 6.66667H10.1065L10.3391 3.87546C10.4531 2.50699 9.37321 1.33333 8 1.33333C6.62679 1.33333 5.54687 2.50699 5.66091 3.87546ZM11.4444 6.66667L11.6678 3.98618C11.8466 1.84036 10.1533 0 8 0C5.84674 0 4.15336 1.84036 4.33218 3.98618L4.55556 6.66667H1.34687H0L0.190476 8L1.00626 13.7105C1.19393 15.0242 2.31905 16 3.64612 16H12.3539C13.6809 16 14.8061 15.0242 14.9937 13.7105L15.8095 8L16 6.66667H14.6531H11.4444ZM11.3333 8H11.2801L11.0579 10.6667H14.0817L14.4627 8H11.3333ZM9.94213 8H6.05787L6.28009 10.6667H9.71991L9.94213 8ZM4.71991 8H4.66667H1.53735L1.9183 10.6667H4.94213L4.71991 8ZM6.61342 14.6667L6.3912 12H9.6088L9.38658 14.6667H6.61342ZM10.9468 12L10.7245 14.6667H12.3539C13.0174 14.6667 13.58 14.1788 13.6738 13.5219L13.8912 12H10.9468ZM5.05324 12L5.27547 14.6667H3.64612C2.98259 14.6667 2.42003 14.1788 2.32619 13.5219L2.10877 12H5.05324Z"
    fill="#333333" />
</svg>

<svg width="16" height="16" fill="none" xmlns="http://www.w3.org/2000/svg"><path fill-rule="evenodd" clip-rule="evenodd" d="m5.66 3.875.234 2.792h4.213l.232-2.792a2.347 2.347 0 1 0-4.678 0Zm5.784 2.792.224-2.68a3.68 3.68 0 1 0-7.336 0l.224 2.68H0L.19 8l.816 5.71A2.667 2.667 0 0 0 3.646 16h8.708a2.667 2.667 0 0 0 2.64-2.29L15.81 8 16 6.667h-4.556ZM11.334 8h-.054l-.222 2.667h3.024L14.462 8h-3.129ZM9.941 8H6.058l.222 2.667h3.44L9.942 8ZM4.72 8H1.537l.381 2.667h3.024L4.72 8Zm1.893 6.667L6.391 12H9.61l-.222 2.667H6.613ZM10.947 12l-.222 2.667h1.629c.663 0 1.226-.488 1.32-1.145L13.89 12h-2.944Zm-5.894 0 .222 2.667H3.646a1.333 1.333 0 0 1-1.32-1.145L2.11 12h2.944Z" fill="#333"/></svg>
